static/img/kroki/843657bd8db21471e7e37b87fce94713.svg

<?xml version="1.0" encoding="us-ascii" standalone="no"?><svg xmlns="http://www.w3.org/2000/svg" xmlns:xlink="http://www.w3.org/1999/xlink" contentStyleType="text/css" height="1033px" preserveAspectRatio="none" style="width:439px;height:1033px;" version="1.1" viewBox="0 0 439 1033" width="439px" zoomAndPan="magnify"><defs/><g><!--class azure_cosmos_db_restorable_table--><g id="elem_azure_cosmos_db_restorable_table"><rect codeLine="23" fill="#3D176E" height="74.0859" id="azure_cosmos_db_restorable_table" rx="2.5" ry="2.5" style="stroke:#000D19;stroke-width:0.5;" width="425" x="7" y="660.14"/><ellipse cx="65.75" cy="680.0345" fill="#ADD1B2" rx="11" ry="11" style="stroke:#181818;stroke-width:1.0;"/><path d="M68.7188,685.6752 Q68.1406,685.972 67.5,686.1127 Q66.8594,686.2689 66.1563,686.2689 Q63.6563,686.2689 62.3281,684.6283 Q61.0156,682.972 61.0156,679.847 Q61.0156,676.722 62.3281,675.0658 Q63.6563,673.4095 66.1563,673.4095 Q66.8594,673.4095 67.5,673.5658 Q68.1563,673.722 68.7188,674.0189 L68.7188,676.7377 Q68.0938,676.1595 67.5,675.8939 Q66.9063,675.6127 66.2813,675.6127 Q64.9375,675.6127 64.25,676.6908 Q63.5625,677.7533 63.5625,679.847 Q63.5625,681.9408 64.25,683.0189 Q64.9375,684.0814 66.2813,684.0814 Q66.9063,684.0814 67.5,683.8158 Q68.0938,683.5345 68.7188,682.9564 L68.7188,685.6752 Z " fill="#000000"/><text fill="#D9B8FF" font-family="Helvetica" font-size="17" lengthAdjust="spacing" textLength="289" x="91.25" y="685.9198">azure_cosmos_db_restorable_table</text><line style="stroke:#000D19;stroke-width:0.5;" x1="8" x2="431" y1="699.9291" y2="699.9291"/><text fill="#D9B8FF" font-family="sans-serif" font-size="14" font-weight="bold" lengthAdjust="spacing" textLength="207" x="18" y="721.9242">restorable_table_resource</text><text fill="#D9B8FF" font-family="sans-serif" font-size="14" lengthAdjust="spacing" textLength="196" x="225" y="721.9242">: azure_restorable_database</text></g><!--class azure_restorable_database--><g id="elem_azure_restorable_database"><rect codeLine="26" fill="#3D176E" height="231.8672" id="azure_restorable_database" rx="2.5" ry="2.5" style="stroke:#000D19;stroke-width:0.5;" width="265" x="87" y="794.22"/><ellipse cx="102" cy="814.1145" fill="#ADD1B2" rx="11" ry="11" style="stroke:#181818;stroke-width:1.0;"/><path d="M104.9688,819.7552 Q104.3906,820.052 103.75,820.1927 Q103.1094,820.3489 102.4063,820.3489 Q99.9063,820.3489 98.5781,818.7083 Q97.2656,817.052 97.2656,813.927 Q97.2656,810.802 98.5781,809.1458 Q99.9063,807.4895 102.4063,807.4895 Q103.1094,807.4895 103.75,807.6458 Q104.4063,807.802 104.9688,808.0989 L104.9688,810.8177 Q104.3438,810.2395 103.75,809.9739 Q103.1563,809.6927 102.5313,809.6927 Q101.1875,809.6927 100.5,810.7708 Q99.8125,811.8333 99.8125,813.927 Q99.8125,816.0208 100.5,817.0989 Q101.1875,818.1614 102.5313,818.1614 Q103.1563,818.1614 103.75,817.8958 Q104.3438,817.6145 104.9688,817.0364 L104.9688,819.7552 Z " fill="#000000"/><text fill="#D9B8FF" font-family="Helvetica" font-size="17" lengthAdjust="spacing" textLength="223" x="121" y="819.9998">azure_restorable_database</text><line style="stroke:#000D19;stroke-width:0.5;" x1="88" x2="351" y1="834.0091" y2="834.0091"/><text fill="#D9B8FF" font-family="sans-serif" font-size="14" font-weight="bold" lengthAdjust="spacing" textLength="105" x="98" y="856.0042">can_undelete</text><text fill="#D9B8FF" font-family="sans-serif" font-size="14" lengthAdjust="spacing" textLength="48" x="203" y="856.0042">: string</text><text fill="#D9B8FF" font-family="sans-serif" font-size="14" font-weight="bold" lengthAdjust="spacing" textLength="167" x="98" y="882.3011">can_undelete_reason</text><text fill="#D9B8FF" font-family="sans-serif" font-size="14" lengthAdjust="spacing" textLength="48" x="265" y="882.3011">: string</text><text fill="#D9B8FF" font-family="sans-serif" font-size="14" font-weight="bold" lengthAdjust="spacing" textLength="134" x="98" y="908.5979">event_timestamp</text><text fill="#D9B8FF" font-family="sans-serif" font-size="14" lengthAdjust="spacing" textLength="48" x="232" y="908.5979">: string</text><text fill="#D9B8FF" font-family="sans-serif" font-size="14" font-weight="bold" lengthAdjust="spacing" textLength="118" x="98" y="934.8948">operation_type</text><text fill="#D9B8FF" font-family="sans-serif" font-size="14" lengthAdjust="spacing" textLength="48" x="216" y="934.8948">: string</text><text fill="#D9B8FF" font-family="sans-serif" font-size="14" font-weight="bold" lengthAdjust="spacing" textLength="72" x="98" y="961.1917">owner_id</text><text fill="#D9B8FF" font-family="sans-serif" font-size="14" lengthAdjust="spacing" textLength="48" x="170" y="961.1917">: string</text><text fill="#D9B8FF" font-family="sans-serif" font-size="14" font-weight="bold" lengthAdjust="spacing" textLength="151" x="98" y="987.4886">owner_resource_id</text><text fill="#D9B8FF" font-family="sans-serif" font-size="14" lengthAdjust="spacing" textLength="48" x="249" y="987.4886">: string</text><text fill="#D9B8FF" font-family="sans-serif" font-size="14" font-weight="bold" lengthAdjust="spacing" textLength="21" x="98" y="1013.7854">rid</text><text fill="#D9B8FF" font-family="sans-serif" font-size="14" lengthAdjust="spacing" textLength="48" x="119" y="1013.7854">: string</text></g><!--class microsoft_resource--><g id="elem_microsoft_resource"><rect codeLine="35" fill="#3D176E" height="100.3828" id="microsoft_resource" rx="2.5" ry="2.5" style="stroke:#000D19;stroke-width:0.5;" width="214" x="112.5" y="438.75"/><ellipse cx="133.8" cy="458.6445" fill="#ADD1B2" rx="11" ry="11" style="stroke:#181818;stroke-width:1.0;"/><path d="M136.7688,464.2852 Q136.1906,464.582 135.55,464.7227 Q134.9094,464.8789 134.2063,464.8789 Q131.7063,464.8789 130.3781,463.2383 Q129.0656,461.582 129.0656,458.457 Q129.0656,455.332 130.3781,453.6758 Q131.7063,452.0195 134.2063,452.0195 Q134.9094,452.0195 135.55,452.1758 Q136.2063,452.332 136.7688,452.6289 L136.7688,455.3477 Q136.1438,454.7695 135.55,454.5039 Q134.9563,454.2227 134.3313,454.2227 Q132.9875,454.2227 132.3,455.3008 Q131.6125,456.3633 131.6125,458.457 Q131.6125,460.5508 132.3,461.6289 Q132.9875,462.6914 134.3313,462.6914 Q134.9563,462.6914 135.55,462.4258 Q136.1438,462.1445 136.7688,461.5664 L136.7688,464.2852 Z " fill="#000000"/><text fill="#D9B8FF" font-family="Helvetica" font-size="17" lengthAdjust="spacing" textLength="158" x="154.2" y="464.5298">microsoft_resource</text><line style="stroke:#000D19;stroke-width:0.5;" x1="113.5" x2="325.5" y1="478.5391" y2="478.5391"/><text fill="#D9B8FF" font-family="sans-serif" font-size="14" font-weight="bold" lengthAdjust="spacing" textLength="35" x="123.5" y="500.5342">etag</text><text fill="#D9B8FF" font-family="sans-serif" font-size="14" lengthAdjust="spacing" textLength="48" x="158.5" y="500.5342">: string</text><text fill="#D9B8FF" font-family="sans-serif" font-size="14" font-weight="bold" lengthAdjust="spacing" textLength="144" x="123.5" y="526.8311">provisioning_state</text><text fill="#D9B8FF" font-family="sans-serif" font-size="14" lengthAdjust="spacing" textLength="48" x="267.5" y="526.8311">: string</text></g><!--class resource--><g id="elem_resource"><rect codeLine="39" fill="#3D176E" height="310.7578" id="resource" rx="2.5" ry="2.5" style="stroke:#000D19;stroke-width:0.5;" width="227" x="106" y="7"/><ellipse cx="174.75" cy="26.8945" fill="#ADD1B2" rx="11" ry="11" style="stroke:#181818;stroke-width:1.0;"/><path d="M177.7188,32.5352 Q177.1406,32.832 176.5,32.9727 Q175.8594,33.1289 175.1563,33.1289 Q172.6563,33.1289 171.3281,31.4883 Q170.0156,29.832 170.0156,26.707 Q170.0156,23.582 171.3281,21.9258 Q172.6563,20.2695 175.1563,20.2695 Q175.8594,20.2695 176.5,20.4258 Q177.1563,20.582 177.7188,20.8789 L177.7188,23.5977 Q177.0938,23.0195 176.5,22.7539 Q175.9063,22.4727 175.2813,22.4727 Q173.9375,22.4727 173.25,23.5508 Q172.5625,24.6133 172.5625,26.707 Q172.5625,28.8008 173.25,29.8789 Q173.9375,30.9414 175.2813,30.9414 Q175.9063,30.9414 176.5,30.6758 Q177.0938,30.3945 177.7188,29.8164 L177.7188,32.5352 Z " fill="#000000"/><text fill="#D9B8FF" font-family="Helvetica" font-size="17" lengthAdjust="spacing" textLength="71" x="200.25" y="32.7798">resource</text><line style="stroke:#000D19;stroke-width:0.5;" x1="107" x2="332" y1="46.7891" y2="46.7891"/><text fill="#D9B8FF" font-family="sans-serif" font-size="14" font-weight="bold" lengthAdjust="spacing" textLength="29" x="117" y="68.7842">age</text><text fill="#D9B8FF" font-family="sans-serif" font-size="14" lengthAdjust="spacing" textLength="66" x="146" y="68.7842">: duration</text><text fill="#D9B8FF" font-family="sans-serif" font-size="14" font-weight="bold" lengthAdjust="spacing" textLength="43" x="117" y="95.0811">atime</text><text fill="#D9B8FF" font-family="sans-serif" font-size="14" lengthAdjust="spacing" textLength="70" x="160" y="95.0811">: datetime</text><text fill="#D9B8FF" font-family="sans-serif" font-size="14" font-weight="bold" lengthAdjust="spacing" textLength="43" x="117" y="121.3779">ctime</text><text fill="#D9B8FF" font-family="sans-serif" font-size="14" lengthAdjust="spacing" textLength="70" x="160" y="121.3779">: datetime</text><text fill="#D9B8FF" font-family="sans-serif" font-size="14" font-weight="bold" lengthAdjust="spacing" textLength="14" x="117" y="147.6748">id</text><text fill="#D9B8FF" font-family="sans-serif" font-size="14" lengthAdjust="spacing" textLength="48" x="131" y="147.6748">: string</text><text fill="#D9B8FF" font-family="sans-serif" font-size="14" font-weight="bold" lengthAdjust="spacing" textLength="33" x="117" y="173.9717">kind</text><text fill="#D9B8FF" font-family="sans-serif" font-size="14" lengthAdjust="spacing" textLength="48" x="150" y="173.9717">: string</text><text fill="#D9B8FF" font-family="sans-serif" font-size="14" font-weight="bold" lengthAdjust="spacing" textLength="90" x="117" y="200.2686">last_access</text><text fill="#D9B8FF" font-family="sans-serif" font-size="14" lengthAdjust="spacing" textLength="66" x="207" y="200.2686">: duration</text><text fill="#D9B8FF" font-family="sans-serif" font-size="14" font-weight="bold" lengthAdjust="spacing" textLength="90" x="117" y="226.5654">last_update</text><text fill="#D9B8FF" font-family="sans-serif" font-size="14" lengthAdjust="spacing" textLength="66" x="207" y="226.5654">: duration</text><text fill="#D9B8FF" font-family="sans-serif" font-size="14" font-weight="bold" lengthAdjust="spacing" textLength="48" x="117" y="252.8623">mtime</text><text fill="#D9B8FF" font-family="sans-serif" font-size="14" lengthAdjust="spacing" textLength="70" x="165" y="252.8623">: datetime</text><text fill="#D9B8FF" font-family="sans-serif" font-size="14" font-weight="bold" lengthAdjust="spacing" textLength="43" x="117" y="279.1592">name</text><text fill="#D9B8FF" font-family="sans-serif" font-size="14" lengthAdjust="spacing" textLength="48" x="160" y="279.1592">: string</text><text fill="#D9B8FF" font-family="sans-serif" font-size="14" font-weight="bold" lengthAdjust="spacing" textLength="34" x="117" y="305.4561">tags</text><text fill="#D9B8FF" font-family="sans-serif" font-size="14" lengthAdjust="spacing" textLength="171" x="151" y="305.4561">: dictionary[string, string]</text></g><!--link azure_cosmos_db_restorable_table to azure_restorable_database--><g id="link_azure_cosmos_db_restorable_table_azure_restorable_database"><path codeLine="51" d="M219.5,734.45 C219.5,751.3 219.5,766.36 219.5,787.97 " fill="none" id="azure_cosmos_db_restorable_table-to-azure_restorable_database" style="stroke:#FFAF37;stroke-width:2.0;"/><polygon fill="#FFAF37" points="219.5,793.97,223.5,784.97,219.5,788.97,215.5,784.97,219.5,793.97" style="stroke:#FFAF37;stroke-width:2.0;"/></g><!--reverse link microsoft_resource to azure_cosmos_db_restorable_table--><g id="link_microsoft_resource_azure_cosmos_db_restorable_table"><path codeLine="52" d="M219.5,557.61 C219.5,594.67 219.5,626.48 219.5,659.87 " fill="none" id="microsoft_resource-backto-azure_cosmos_db_restorable_table" style="stroke:#FFAF37;stroke-width:2.0;"/><polygon fill="none" points="219.5,539.61,213.5,557.61,225.5,557.61,219.5,539.61" style="stroke:#FFAF37;stroke-width:2.0;"/></g><!--reverse link resource to microsoft_resource--><g id="link_resource_microsoft_resource"><path codeLine="53" d="M219.5,336.06 C219.5,379.65 219.5,405.98 219.5,438.42 " fill="none" id="resource-backto-microsoft_resource" style="stroke:#FFAF37;stroke-width:2.0;"/><polygon fill="none" points="219.5,318.06,213.5,336.06,225.5,336.06,219.5,318.06" style="stroke:#FFAF37;stroke-width:2.0;"/></g><!--SRC=[XLJ1Yjim4BtxAmHx2pKaNTfiIYdi1fRsifHkRwMOiJHsH2p9ZEI4RDj_h-GaYoLxauknvxrvyzumU2C5CbIjEp25gaIocTrAtGA1OlT4PhysZI5sKrLGtIvJyD5eTvNm10hPLsnsw2I7bF5p8_bMexNi_G1w0BwjoNHQ7EKTWROUGkq6h7K3rjuxHxBi70xCY5LvLrKfCnMzkHMBvKSSqGm9f1DbFf-BnIgbN1rrCVShurc-85iCb_Pa78viZaRqh8ik0sDWSXJqZB_fyJi88NNDFWngFuwUI2D5zUSD2BCFx0eQEnnZ7H8QTsXnFKg5gpjHBIV9tzuYPpoiZi5BHrXmOvMnXIWBGkiCGTbWuSAJ_SbcixGOMAOZZhFPfvF2W2B0ay2R_nVDc63quXnquTrXWwxNi_u6TPq0lXkiqH6EEt_2XPFA2uDg8yoqIE2aqKLOGWpj_T8BAIQAvrWfIj7tEPQId8mrbNljw_EWWphgRidifFLU_6VXhKOnpsAH1DGzHNJ73A4IOlOrtnxUmtucQebnVn1nmSzo1N3kVnB9X1xfMd6oDq3Kn1mDAjwg3trKb3oq0Hr-7R5t9yvl7_NgiUNvbmltDB7mpt_pFBzwn5d27mjb_m40]--></g></svg>

<svg xmlns="http://www.w3.org/2000/svg" width="439" height="1033" viewBox="0 0 439 1033"><rect width="425" height="74.086" x="7" y="660.14" fill="#3D176E" rx="2.5" ry="2.5" style="stroke:#000d19;stroke-width:.5"/><circle cx="65.75" cy="680.034" r="11" fill="#ADD1B2" style="stroke:#181818;stroke-width:1"/><path d="M68.719 685.675q-.578.297-1.219.438-.64.156-1.344.156-2.5 0-3.828-1.64-1.312-1.657-1.312-4.782t1.312-4.781q1.328-1.657 3.828-1.657.703 0 1.344.157.656.156 1.219.453v2.719q-.625-.579-1.219-.844-.594-.281-1.219-.281-1.344 0-2.031 1.078-.687 1.062-.687 3.156t.687 3.172q.688 1.062 2.031 1.062.625 0 1.219-.265.594-.282 1.219-.86z"/><text x="91.25" y="685.92" fill="#D9B8FF" font-family="Helvetica" font-size="17" textLength="289">azure_cosmos_db_restorable_table</text><path d="M8 699.929h423" style="stroke:#000d19;stroke-width:.5"/><text x="18" y="721.924" fill="#D9B8FF" font-family="sans-serif" font-size="14" font-weight="bold" textLength="207">restorable_table_resource</text><text x="225" y="721.924" fill="#D9B8FF" font-family="sans-serif" font-size="14" textLength="196">: azure_restorable_database</text><rect width="265" height="231.867" x="87" y="794.22" fill="#3D176E" rx="2.5" ry="2.5" style="stroke:#000d19;stroke-width:.5"/><circle cx="102" cy="814.115" r="11" fill="#ADD1B2" style="stroke:#181818;stroke-width:1"/><path d="M104.969 819.755q-.578.297-1.219.438-.64.156-1.344.156-2.5 0-3.828-1.64-1.312-1.657-1.312-4.782t1.312-4.781q1.328-1.656 3.828-1.656.703 0 1.344.156.656.156 1.219.453v2.719q-.625-.578-1.219-.844-.594-.281-1.219-.281-1.344 0-2.031 1.078-.687 1.062-.687 3.156t.687 3.172q.688 1.062 2.031 1.062.625 0 1.219-.265.594-.281 1.219-.86z"/><text x="121" y="820" fill="#D9B8FF" font-family="Helvetica" font-size="17" textLength="223">azure_restorable_database</text><path d="M88 834.009h263" style="stroke:#000d19;stroke-width:.5"/><text x="98" y="856.004" fill="#D9B8FF" font-family="sans-serif" font-size="14" font-weight="bold" textLength="105">can_undelete</text><text x="203" y="856.004" fill="#D9B8FF" font-family="sans-serif" font-size="14" textLength="48">: string</text><text x="98" y="882.301" fill="#D9B8FF" font-family="sans-serif" font-size="14" font-weight="bold" textLength="167">can_undelete_reason</text><text x="265" y="882.301" fill="#D9B8FF" font-family="sans-serif" font-size="14" textLength="48">: string</text><text x="98" y="908.598" fill="#D9B8FF" font-family="sans-serif" font-size="14" font-weight="bold" textLength="134">event_timestamp</text><text x="232" y="908.598" fill="#D9B8FF" font-family="sans-serif" font-size="14" textLength="48">: string</text><text x="98" y="934.895" fill="#D9B8FF" font-family="sans-serif" font-size="14" font-weight="bold" textLength="118">operation_type</text><text x="216" y="934.895" fill="#D9B8FF" font-family="sans-serif" font-size="14" textLength="48">: string</text><text x="98" y="961.192" fill="#D9B8FF" font-family="sans-serif" font-size="14" font-weight="bold" textLength="72">owner_id</text><text x="170" y="961.192" fill="#D9B8FF" font-family="sans-serif" font-size="14" textLength="48">: string</text><text x="98" y="987.489" fill="#D9B8FF" font-family="sans-serif" font-size="14" font-weight="bold" textLength="151">owner_resource_id</text><text x="249" y="987.489" fill="#D9B8FF" font-family="sans-serif" font-size="14" textLength="48">: string</text><text x="98" y="1013.785" fill="#D9B8FF" font-family="sans-serif" font-size="14" font-weight="bold" textLength="21">rid</text><text x="119" y="1013.785" fill="#D9B8FF" font-family="sans-serif" font-size="14" textLength="48">: string</text><rect width="214" height="100.383" x="112.5" y="438.75" fill="#3D176E" rx="2.5" ry="2.5" style="stroke:#000d19;stroke-width:.5"/><circle cx="133.8" cy="458.644" r="11" fill="#ADD1B2" style="stroke:#181818;stroke-width:1"/><path d="M136.769 464.285q-.578.297-1.219.438-.64.156-1.344.156-2.5 0-3.828-1.64-1.312-1.657-1.312-4.782t1.312-4.781q1.328-1.656 3.828-1.656.703 0 1.344.156.656.156 1.219.453v2.719q-.625-.579-1.219-.844-.594-.281-1.219-.281-1.343 0-2.031 1.078-.687 1.062-.687 3.156t.687 3.172q.688 1.062 2.031 1.062.625 0 1.219-.265.594-.281 1.219-.86z"/><text x="154.2" y="464.53" fill="#D9B8FF" font-family="Helvetica" font-size="17" textLength="158">microsoft_resource</text><path d="M113.5 478.539h212" style="stroke:#000d19;stroke-width:.5"/><text x="123.5" y="500.534" fill="#D9B8FF" font-family="sans-serif" font-size="14" font-weight="bold" textLength="35">etag</text><text x="158.5" y="500.534" fill="#D9B8FF" font-family="sans-serif" font-size="14" textLength="48">: string</text><text x="123.5" y="526.831" fill="#D9B8FF" font-family="sans-serif" font-size="14" font-weight="bold" textLength="144">provisioning_state</text><text x="267.5" y="526.831" fill="#D9B8FF" font-family="sans-serif" font-size="14" textLength="48">: string</text><rect width="227" height="310.758" x="106" y="7" fill="#3D176E" rx="2.5" ry="2.5" style="stroke:#000d19;stroke-width:.5"/><circle cx="174.75" cy="26.895" r="11" fill="#ADD1B2" style="stroke:#181818;stroke-width:1"/><path d="M177.719 32.535q-.578.297-1.219.438-.64.156-1.344.156-2.5 0-3.828-1.64-1.312-1.657-1.312-4.782t1.312-4.781q1.328-1.656 3.828-1.656.703 0 1.344.156.656.156 1.219.453v2.719q-.625-.578-1.219-.844-.594-.281-1.219-.281-1.344 0-2.031 1.078-.687 1.062-.687 3.156t.687 3.172q.688 1.062 2.031 1.062.625 0 1.219-.265.594-.281 1.219-.86z"/><text x="200.25" y="32.78" fill="#D9B8FF" font-family="Helvetica" font-size="17" textLength="71">resource</text><path d="M107 46.789h225" style="stroke:#000d19;stroke-width:.5"/><text x="117" y="68.784" fill="#D9B8FF" font-family="sans-serif" font-size="14" font-weight="bold" textLength="29">age</text><text x="146" y="68.784" fill="#D9B8FF" font-family="sans-serif" font-size="14" textLength="66">: duration</text><text x="117" y="95.081" fill="#D9B8FF" font-family="sans-serif" font-size="14" font-weight="bold" textLength="43">atime</text><text x="160" y="95.081" fill="#D9B8FF" font-family="sans-serif" font-size="14" textLength="70">: datetime</text><text x="117" y="121.378" fill="#D9B8FF" font-family="sans-serif" font-size="14" font-weight="bold" textLength="43">ctime</text><text x="160" y="121.378" fill="#D9B8FF" font-family="sans-serif" font-size="14" textLength="70">: datetime</text><text x="117" y="147.675" fill="#D9B8FF" font-family="sans-serif" font-size="14" font-weight="bold" textLength="14">id</text><text x="131" y="147.675" fill="#D9B8FF" font-family="sans-serif" font-size="14" textLength="48">: string</text><text x="117" y="173.972" fill="#D9B8FF" font-family="sans-serif" font-size="14" font-weight="bold" textLength="33">kind</text><text x="150" y="173.972" fill="#D9B8FF" font-family="sans-serif" font-size="14" textLength="48">: string</text><text x="117" y="200.269" fill="#D9B8FF" font-family="sans-serif" font-size="14" font-weight="bold" textLength="90">last_access</text><text x="207" y="200.269" fill="#D9B8FF" font-family="sans-serif" font-size="14" textLength="66">: duration</text><text x="117" y="226.565" fill="#D9B8FF" font-family="sans-serif" font-size="14" font-weight="bold" textLength="90">last_update</text><text x="207" y="226.565" fill="#D9B8FF" font-family="sans-serif" font-size="14" textLength="66">: duration</text><text x="117" y="252.862" fill="#D9B8FF" font-family="sans-serif" font-size="14" font-weight="bold" textLength="48">mtime</text><text x="165" y="252.862" fill="#D9B8FF" font-family="sans-serif" font-size="14" textLength="70">: datetime</text><text x="117" y="279.159" fill="#D9B8FF" font-family="sans-serif" font-size="14" font-weight="bold" textLength="43">name</text><text x="160" y="279.159" fill="#D9B8FF" font-family="sans-serif" font-size="14" textLength="48">: string</text><text x="117" y="305.456" fill="#D9B8FF" font-family="sans-serif" font-size="14" font-weight="bold" textLength="34">tags</text><text x="151" y="305.456" fill="#D9B8FF" font-family="sans-serif" font-size="14" textLength="171">: dictionary[string, string]</text><path fill="none" d="M219.5 734.45v53.52" style="stroke:#ffaf37;stroke-width:2"/><path fill="#FFAF37" d="m219.5 793.97 4-9-4 4-4-4z" style="stroke:#ffaf37;stroke-width:2"/><path fill="none" d="M219.5 557.61v102.26m0-120.26-6 18h12zm0-203.55v102.36m0-120.36-6 18h12z" style="stroke:#ffaf37;stroke-width:2"/></svg>
